!!!COM: Anthoni van Noordt
!!!OTL: Fantasia
!!!OMV: 
!!!SCT: 
!!!SCA: 
**kern	**kern	**kern	**kern
*MM120	*MM120	*MM120	*MM120
*d:dor	*d:dor	*d:dor	*d:dor
*clefF4	*clefF4	*clefG2	*clefG2
*k[]	*k[]	*k[]	*k[]
*M2/2	*M2/2	*M2/2	*M2/2
*tb32	*tb32	*tb32	*tb32
=1	=1	=1	=1
1r	2A	1r	1r
.	4A	.	.
.	4A	.	.
=2	=2	=2	=2
1r	8F	1r	1r
.	16E	.	.
.	16F	.	.
.	8D	.	.
.	8E	.	.
.	8F	.	.
.	8E	.	.
.	8F	.	.
.	8G	.	.
=3	=3	=3	=3
1r	8A	1r	1r
.	8B	.	.
.	8c	.	.
.	8B	.	.
.	8A	.	.
.	8G	.	.
.	8F	.	.
.	8E	.	.
=4	=4	=4	=4
1r	8D	1r	2a
.	16E	.	.
.	16F	.	.
.	16G	.	.
.	16A	.	.
.	16B	.	.
.	16c	.	.
.	4d	.	4a
.	4c#	.	4a
=5	=5	=5	=5
1r	4.d	1r	8f
.	.	.	16e
.	.	.	16f
.	.	.	8d
.	8c	.	8e
.	4B-	.	8f
.	.	.	8e
.	8A	.	8f
.	8G	.	8g
=6	=6	=6	=6
1r	4F	1r	8a
.	.	.	8b
.	4E	.	8cc
.	.	.	8b
.	4F	.	8a
.	.	.	8g
.	4C	.	8f
.	.	.	8e
=7	=7	=7	=7
1r	4.D	4r	4d
.	.	4d	4b-
.	8E	.	.
.	4F	4d	4a
.	4G	4d	8g
.	.	.	8f
=8	=8	=8	=8
1r	2A	8c	4e
.	.	16B	.
.	.	16c	.
.	.	8A	4.a
.	.	8B	.
.	4r	8c	.
.	.	8B	16g
.	.	.	16a
.	4A	8c	8e
.	.	8d	8f
=9	=9	=9	=9
1r	2E	8e	8g
.	.	8f	8a
.	.	8g	8b
.	.	8f	8a
.	2E	8e	8g#
.	.	8d	4a
.	.	8c	.
.	.	8B	8g#
=10	=10	=10	=10
2D	4F	4A	4a
.	4G	8B	4g
.	.	8c	.
4D	8A	4d	8f
.	8G	.	8e
4D	8A	4d	8f
.	8B	.	8g
=11	=11	=11	=11
8C	2c	4e	2a
16BB	.	.	.
16C	.	.	.
8AA	.	4f	.
8BB	.	.	.
8C	4r	2e	2r
8BB	.	.	.
8C	[4G	.	.
8D	.	.	.
=12	=12	=12	=12
8E	8G]	4r	1r
8F	8A	.	.
8G	8B	4e	.
8F	8A	.	.
8E	8G#	4e	.
8D	4A	.	.
8C	.	4e	.
8BB	8G#	.	.
=13	=13	=13	=13
4AA	1A	8c	1r
.	.	16B	.
.	.	16c	.
2F	.	8A	.
.	.	8B	.
.	.	8c	.
.	.	8B	.
8E	.	8c	.
8D	.	8d	.
=14	=14	=14	=14
4C	1r	8e	2a
.	.	8f	.
4BB	.	8g	.
.	.	8f	.
2C	.	8e	4a
.	.	8d	.
.	.	8c	4a
.	.	8B	.
=15	=15	=15	=15
4D	1r	4A	8f
.	.	.	16e
.	.	.	16f
4BB-	.	4B-	8d
.	.	.	8e
4AA	.	4c	8f
.	.	.	8e
4GG	.	8d	8f
.	.	8e	8g
=16	=16	=16	=16
8FF	1r	4f	8a
8GG	.	.	8b
8AA	.	8e	8cc
8BB	.	8d	8b
4C	.	8c	8a
.	.	8B	8g
4D	.	4A	8f
.	.	.	8e
=17	=17	=17	=17
1r	2d	4B-	4d
.	.	4F	4a
.	4d	2G	8g
.	.	.	8a
.	4d	.	8f
.	.	.	8g
=18	=18	=18	=18
1r	8c	1r	2e
.	16B	.	.
.	16c	.	.
.	8A	.	.
.	8B	.	.
.	8c	.	8ee
.	8B	.	16dd
.	.	.	16ee
.	8c	.	8a
.	8d	.	8b
=19	=19	=19	=19
1r	8e	1r	4cc
.	8f	.	.
.	8g	.	8b
.	8f	.	8dd
.	8e	.	8cc
.	8d	.	8b
.	8c	.	8a
.	8B	.	8g
=20	=20	=20	=20
2D	4A	2r	4f#
.	4G	.	2g
4D	2A	4d	.
4D	.	4d	4f#
=21	=21	=21	=21
8C	1r	8e	4g
16BB	.	16d	.
16C	.	16e	.
8AA	.	8c	4a
8BB	.	8d	.
8C	.	4.e	4g
8BB	.	.	.
8C	.	.	4cc
8D	.	8f	.
=22	=22	=22	=22
8E	1r	4g	4.b
8F	.	.	.
8G	.	4d	.
8F	.	.	8a
8E	.	4.e	4g
8D	.	.	.
8C	.	.	8a
8BB	.	8d	8b
=23	=23	=23	=23
8AA	1r	[2e	2cc
16BB	.	.	.
16C	.	.	.
16D	.	.	.
16E	.	.	.
16F	.	.	.
16G	.	.	.
4A	.	8e]	4r
.	.	8d	.
4A	.	8e	[4cc
.	.	8f#	.
=24	=24	=24	=24
2E	2e	4g#	4.cc]
.	.	4.a	.
.	.	.	16dd
.	.	.	16ee
2E	4e	.	4b
.	.	8a	.
.	4e	4g#	4b
=25	=25	=25	=25
2A	8c	1a	4a
.	16B	.	.
.	16c	.	.
.	8A	.	4ee
.	8B	.	.
4r	8c	.	4ee
.	8B	.	.
[4A	8c	.	4ee
.	8d	.	.
=26	=26	=26	=26
8A]	4e	2r	8cc
8G	.	.	16b
.	.	.	16cc
4F	4f	.	8a
.	.	.	8b
4E	2c	4g	8cc
.	.	.	8b
4D	.	8a	8cc
.	.	8b	8dd
=27	=27	=27	=27
4C	1r	4cc	8ee
.	.	.	8ff
4BB	.	4dd	8gg
.	.	.	8ff
2C	.	8cc	8ee
.	.	8b	8dd
.	.	8a	8cc
.	.	8g	8b
=28	=28	=28	=28
4.D	2d	8f	[2a
.	.	16e	.
.	.	16f	.
.	.	8d	.
8C	.	8e	.
8D	4d	4f	8a]
8E	.	.	8g
8F	4d	4f	8a
8G	.	.	8b
=29	=29	=29	=29
4A	8c	4e	2cc
.	16B	.	.
.	16c	.	.
4F	8A	4a	.
.	8B	.	.
8E	8c	4g	2r
16D	8B	.	.
16E	.	.	.
8AA	8c	4a	.
8BB	8d	.	.
=30	=30	=30	=30
8C	8e	1r	1r
8D	8f	.	.
8E	8g	.	.
8F	8f	.	.
4G	8e	.	.
.	8d	.	.
4E	8c	.	.
.	8B	.	.
=31	=31	=31	=31
4F	8A	2a	4r
.	8G	.	.
4D	8A	.	4ff
.	8B	.	.
2A	8c#	4a	2ee
.	8d	.	.
.	8B	4a	.
.	8c#	.	.
=32	=32	=32	=32
1D	4d	8f	1dd
.	.	16e	.
.	.	16f	.
.	4B-	8d	.
.	.	8e	.
.	8A	8f	.
.	16G	8e	.
.	16A	.	.
.	8D	8f	.
.	8E	8g	.
=33	=33	=33	=33
4r	1F	8a	1r
.	.	8b	.
4A	.	8cc	.
.	.	8b	.
4A	.	8a	.
.	.	8g	.
4A	.	8f	.
.	.	8e	.
=34	=34	=34	=34
8F	1r	4d	4r
16E	.	.	.
16F	.	.	.
8D	.	4f	4b-
8E	.	.	.
8F	.	4f	8a
8E	.	.	8g
8F	.	4f	8a
8G	.	.	8b
=35	=35	=35	=35
8A	1r	4.e	4cc
8B	.	.	.
8c	.	.	4g
8B	.	8d	.
8A	.	8c	4a
8G	.	8B	.
8F	.	4A	8b
8E	.	.	8cc
=36	=36	=36	=36
8D	2f	1r	2dd
16E	.	.	.
16F	.	.	.
16G	.	.	.
16A	.	.	.
16B	.	.	.
16c	.	.	.
8d	4f	.	4dd
8D	.	.	.
8F	4f	.	4dd
8G	.	.	.
=37	=37	=37	=37
1A	8e	2r	8cc
.	16d	.	16b
.	16e	.	16cc
.	8c	.	8a
.	8d	.	8b
.	8e	4r	8cc
.	8d	.	8b
.	8c	4a	8cc
.	8B	.	8dd
=38	=38	=38	=38
1r	4c	4e	8ee
.	.	.	8ff
.	4B	4d	8gg
.	.	.	8ff
.	2c	4e	8ee
.	.	.	8dd
.	.	8a	8cc
.	.	8g	8b
=39	=39	=39	=39
1r	2d	2f#	4a
.	.	.	4.dd
.	2e	4g#	.
.	.	.	8b
.	.	4a	4cc
=40	=40	=40	=40
1r	1r	8g	4b
.	.	16f	.
.	.	16g	.
.	.	8e	[4ee
.	.	8f	.
.	.	[2g	8ee]
.	.	.	16dd
.	.	.	16ee
.	.	.	8b
.	.	.	8cc
=41	=41	=41	=41
1r	2r	8g]	2.dd
.	.	16f	.
.	.	16g	.
.	.	8d	.
.	.	8e	.
.	8d	2f	.
.	16c	.	.
.	16d	.	.
.	8A	.	[4cc
.	8B	.	.
=42	=42	=42	=42
2r	2c	4.e	8cc]
.	.	.	16b
.	.	.	16cc
.	.	.	8g
.	.	8f#	8a
8G	4d	4g	4b-
16F	.	.	.
16G	.	.	.
8D	4f	4a	[4dd
8E	.	.	.
=43	=43	=43	=43
4.F	4f	[2a	8dd]
.	.	.	16cc
.	.	.	16dd
.	4.c	.	8a
8G	.	.	8b
4A	.	8a]	4cc
.	8B	16g	.
.	.	16a	.
4A	8c	8e	[4ee
.	8d	8f	.
=44	=44	=44	=44
4E	4e	[2g	8ee]
.	.	.	16dd
.	.	.	16ee
2G	8d	.	8b
.	8c	.	8cc
.	8B	8g]	[2dd
.	8A	16f	.
.	.	16g	.
4G	8B	8d	.
.	8c	8e	.
=45	=45	=45	=45
2D	2d	2f	8dd]
.	.	.	16cc
.	.	.	16dd
.	.	.	8a
.	.	.	8b
8A	4r	2e	2cc
16G	.	.	.
16A	.	.	.
8E	4e	.	.
8F	.	.	.
=46	=46	=46	=46
[2G	8e	4r	2b
.	16d	.	.
.	16e	.	.
.	8B	4g	.
.	8c	.	.
8G]	[2d	4g	2r
16F	.	.	.
16G	.	.	.
8D	.	8f	.
8E	.	8g	.
=47	=47	=47	=47
4.F	8d]	[2a	1r
.	16c	.	.
.	16d	.	.
.	8A	.	.
8G	8B	.	.
2A	4.c	8a]	.
.	.	16g	.
.	.	16a	.
.	.	8e	.
.	8d	8f#	.
=48	=48	=48	=48
2E	8e	4g#	2r
.	16d	.	.
.	16e	.	.
.	8c	2a	.
.	8d	.	.
2E	8B	.	8ee
.	8A	.	16dd
.	.	.	16ee
.	4B	4g#	8b
.	.	.	8dd
=49	=49	=49	=49
1AA	1A	4.a	4cc#
.	.	.	4ee
.	.	8b	.
.	.	8cc	4ee
.	.	8b	.
.	.	8a	4ee
.	.	8g	.
=50	=50	=50	=50
1r	1r	8a	8cc
.	.	8g	16b
.	.	.	16cc
.	.	8f	8a
.	.	8g	8b
.	.	8e	8cc
.	.	8d	8b
.	.	8c	8cc
.	.	8B	8dd
=51	=51	=51	=51
2r	4r	1c	8ee
.	.	.	8ff
.	4e	.	8gg
.	.	.	8ff
4r	4e	.	8ee
.	.	.	8dd
4E	4e	.	8cc
.	.	.	8b
=52	=52	=52	=52
4.F	8c	4r	2a
.	16B	.	.
.	16c	.	.
.	8A	4f	.
8G	8B	.	.
2A	8c	4.e	4r
.	8B	.	.
.	8c	.	4ee
.	8d	8f	.
=53	=53	=53	=53
2.E	8e	8g	4.ee
.	8f	8a	.
.	8g	8b	.
.	8f	8a	8dd
.	8e	4g	8cc
.	8d	.	8b
[4F	8c	[4f	4a
.	8B	.	.
=54	=54	=54	=54
8F]	2A	8f]	4.dd
8E	.	8g	.
4D	.	8f	.
.	.	8e	8cc
4.G	2B	2d	8b
.	.	.	8a
.	.	.	[4g
8F	.	.	.
=55	=55	=55	=55
8E	2c	4.e	4g]
8D	.	.	.
4C	.	.	4.cc
.	.	8f	.
4G	2d	4.g	.
.	.	.	8dd
4G	.	.	4b
.	.	8f	.
=56	=56	=56	=56
8A	4c	4e	2cc
8G	.	.	.
8F	4A	4a	.
8E	.	.	.
4.F	8c	4a	4r
.	8B	.	.
.	4A	4a	4cc
8E	.	.	.
=57	=57	=57	=57
8D	4.A	8f	[2dd
8C	.	16e	.
.	.	16f	.
4BB-	.	8d	.
.	8G	8e	.
[2AA	2A	8f	8dd]
.	.	8e	16cc
.	.	.	16dd
.	.	8f	8a
.	.	8g	8b
=58	=58	=58	=58
4AA]	2.A	8a	8cc
.	.	8b	8dd
4AA	.	8cc	8ee
.	.	8b	8dd
2D	.	8a	8ff
.	.	8g	8ee
.	[4d	8f	8dd
.	.	8e	8cc
=59	=59	=59	=59
4.G	8d]	4.d	8b
.	8c	.	8a
.	8B	.	4b
8F	8A	8d	.
8E	4.G	8e	8cc
8D	.	8f	8dd
8C	.	4g	4ee
8BB	8G	.	.
=60	=60	=60	=60
4AA	8A	4.cc	4.ee
.	8B	.	.
4A	8c	.	.
.	8d	8b	8dd
4A	8e	4a	4.cc
.	8d	.	.
4A	[4c	4e	.
.	.	.	8b
=61	=61	=61	=61
8F	4c]	4.f	4a
16E	.	.	.
16F	.	.	.
8D	4.d	.	2ff
8E	.	8g	.
8F	.	2a	.
8E	16c	.	.
.	16d	.	.
8F	8A	.	4ff
8G	8B	.	.
=62	=62	=62	=62
8A	8c	2r	8ee
8B	8d	.	16dd
.	.	.	16ee
8c	8e	.	8a
8B	8d	.	8b
8A	8c	8r	[2cc
8G	8B	8e	.
8F	[4A	8a	.
8E	.	8g	.
=63	=63	=63	=63
2.D	4A]	4f#	8cc]
.	.	.	8dd
.	4d	2g	8b
.	.	.	16cc
.	.	.	16dd
.	4d	.	8a
.	.	.	8dd
4D	4d	4f#	8a
.	.	.	8b
=64	=64	=64	=64
4E	8c	4g	4.cc
.	16B	.	.
.	16c	.	.
4F	8A	4a	.
.	8B	.	8dd
8C	8c	[2g	4.ee
8G	8B	.	.
8A	8c	.	.
8B	8d	.	8dd
=65	=65	=65	=65
4c	8e	4g]	4cc
.	8f	.	.
2G	8g	4g	4b
.	8f	.	.
.	8e	8g	4b
.	8d	8f	.
8A	8c	4e	4a
8G	8B	.	.
=66	=66	=66	=66
8F	2.A	8d	4r
8E	.	8c#	.
8D	.	8d	4a
8C#	.	8e	.
4D	.	4f	8a
.	.	.	8g
8C	4A	8e	8a
8BB	.	8d	8b
=67	=67	=67	=67
2AA	8A	2e	4.cc
.	8G	.	.
.	8A	.	.
.	8B	.	16b
.	.	.	16a
2r	4.c	8e	4g
.	.	8d	.
.	.	8e	4cc
.	16B	8f#	.
.	16A	.	.
=68	=68	=68	=68
1r	4.G	2g	8b
.	.	.	8a
.	.	.	8b
.	16F	.	8cc
.	16E	.	.
.	4D	8f	4dd
.	.	8e	.
.	8d	8f	8a
.	16c	8g	8b
.	16B	.	.
=69	=69	=69	=69
1r	4.A	2a	8cc
.	.	.	8b
.	.	.	8cc
.	16G	.	8dd
.	16F	.	.
.	8E	2g	4.ee
.	8D	.	.
.	8E	.	.
.	8F	.	16dd
.	.	.	16cc
=70	=70	=70	=70
1r	8G	4.g	4.b
.	8F#	.	.
.	8G	.	.
.	8A	16f	8cc
.	.	16e	.
.	8B	8d	4.dd
.	8A	8c	.
.	8B	8d	.
.	8c	8e	16cc
.	.	.	16b
=71	=71	=71	=71
8D	4.d	4.f	2a
8C	.	.	.
8D	.	.	.
8E	16c	8g	.
.	16B	.	.
8F	8A	4.a	2r
8E	8G	.	.
8F	8A	.	.
8G	8B	16g	.
.	.	16f	.
=72	=72	=72	=72
2A	4c	8e	4.ee
.	.	8d	.
.	4c	8e	.
.	.	8f#	16dd
.	.	.	16cc
4.G	2d	2g	8b
.	.	.	8a
.	.	.	8b
16F	.	.	8cc
16E	.	.	.
=73	=73	=73	=73
2D	4.d	8f	8dd
.	.	8e	8cc
.	.	8f	8dd
.	16c	8g	8ee
.	16B	.	.
4.D	2A	8a	[2ff
.	.	8g	.
.	.	8a	.
16C	.	8b	.
16BB	.	.	.
=74	=74	=74	=74
4AA	2r	4cc#	4.ff]
4GG	.	4dd	.
.	.	.	16gg
.	.	.	16ff
8AA	2A	8cc#	8ee
8BB	.	8b	8dd
4C#	.	8a	4ee
.	.	8g	.
=75	=75	=75	=75
4.D	2.A	8f	4a
.	.	8g	.
.	.	8f	4dd
8C	.	8e	.
4BB	.	4.d	4dd
4BB	4G#	.	4dd
.	.	8e	.
=76	=76	=76	=76
4AA	2A	4f	8cc
.	.	.	16b
.	.	.	16cc
4D	.	4f#	8a
.	.	.	8b
4.E	4G	[2g	8cc
.	.	.	8b
.	8c	.	8cc
8D	8B	.	8dd
=77	=77	=77	=77
4C	8c	2g]	8ee
.	8d	.	8ff
4.c	8e	.	8gg
.	8f	.	8ff
.	4g	2r	8ee
8B	.	.	8dd
4A	8a	.	8cc
.	8g	.	8b
=78	=78	=78	=78
8d	8f	1r	8a
8c	8e	.	16b
.	.	.	16cc
8B-	8d	.	[4dd
8A	16e	.	.
.	16f	.	.
2G	8g	.	16dd]
.	.	.	16ee
.	8d	.	8ff
.	8g	.	8ee
.	8f	.	8dd
=79	=79	=79	=79
8.A	4e	2a	4cc#
16G	.	.	.
8F	4f	.	2dd
16E	.	.	.
16D	.	.	.
8A	2e	4a	.
8AA	.	.	.
4A	.	4a	4cc#
=80	=80	=80	=80
2D	4.d	8f	2dd
.	.	16e	.
.	.	16f	.
.	.	8d	.
.	8c	8e	.
4D	4c	8f	4a
.	.	8e	.
4D	4B	8f	[4ff
.	.	8g	.
=81	=81	=81	=81
2C	2.c	8a	8ff]
.	.	8b	8ff
.	.	8cc	4ee
.	.	8b	.
2F	.	8a	8ff
.	.	8g	8ee
.	[4d	8f	8dd
.	.	8e	8cc
=82	=82	=82	=82
4.G	8d]	4d	2b
.	8c	.	.
.	4.B	4g	.
8F	.	.	.
2E	.	4.g	4.gg
.	16c	.	.
.	16d	.	.
.	[4e	.	.
.	.	16a	8ff
.	.	16b	.
=83	=83	=83	=83
2A	8e]	4.cc	4ee
.	16f	.	.
.	16g	.	.
.	8a	.	8ff
.	8g	8b	4ee
4A	4f	2a	.
.	.	.	4dd
4A	4e	.	.
.	.	.	8cc
=84	=84	=84	=84
8F	4.f	1r	4a
16E	.	.	.
16F	.	.	.
8D	.	.	4.dd
8E	8g	.	.
8F	8a	.	.
8E	8g	.	16cc
.	.	.	16dd
8F	4f	.	8a
8G	.	.	8b
=85	=85	=85	=85
8A	4.e	2r	4cc
8B	.	.	.
8c	.	.	4g
8B	8d	.	.
8A	8c	4r	4a
8G	8B	.	.
8F	4A	8d	8b
8E	.	8e	8cc
=86	=86	=86	=86
[2D	4r	8f	8dd
.	.	8e	8cc
.	4d	8f	8dd
.	.	8g	8ee
8D]	4d	8a	2ff
8E	.	8g	.
8F	4d	8a	.
8G	.	8b	.
=87	=87	=87	=87
2.A	8c	4.cc	1ee
.	16B	.	.
.	16c	.	.
.	8A	.	.
.	8B	8b	.
.	8c	8a	.
.	8B	16g	.
.	.	16a	.
4A	8c	8e	.
.	8d	8f	.
=88	=88	=88	=88
4.E	8e	8g	1r
.	8f	8a	.
.	8g	8b	.
8F	8f	8a	.
4G	8e	8g	.
.	8d	8f	.
8A	8c	4e	.
8G	8B	.	.
=89	=89	=89	=89
8F	1A	8a	4r
8E	.	8g	.
2D	.	4f	4a
.	.	4e	4a
4C#	.	4e	4a
=90	=90	=90	=90
1D	4r	1d	8f
.	.	.	16e
.	.	.	16f
.	4A	.	8d
.	.	.	8e
.	4A	.	8f
.	.	.	8e
.	4A	.	8f
.	.	.	8g
=91	=91	=91	=91
1r	8F	4r	[2a
.	16E	.	.
.	16F	.	.
.	8D	4d	.
.	8E	.	.
.	8F	4d	8a]
.	8E	.	8g
.	8F	4d	8a
.	8G	.	8b
=92	=92	=92	=92
1r	[2A	8c	4.cc
.	.	16B	.
.	.	16c	.
.	.	8A	.
.	.	8B	8b
.	8A]	8c	4a
.	8G	8B	.
.	8A	8c	4a
.	8B	8d	.
=93	=93	=93	=93
4r	8c	4e	4g
.	8B	.	.
4D	4A	8f	8a
.	.	8e	8g
4D	4A	4d	8f
.	.	.	8g
4D	4d	4f	8a
.	.	.	8b
=94	=94	=94	=94
8C	4G	4e	4.cc
16BB	.	.	.
16C	.	.	.
8AA	4A	4a	.
8BB	.	.	8dd
8C#	4r	4a	2ee
4D	.	.	.
.	4A	4a	.
8C#	.	.	.
=95	=95	=95	=95
1D	4A	8f	4a
.	.	16e	.
.	.	16f	.
.	4B-	8d	4dd
.	.	8e	.
.	2A	8f	4dd
.	.	8e	.
.	.	8f	4dd
.	.	8g	.
=96	=96	=96	=96
1A	4r	[2a	8cc
.	.	.	16b
.	.	.	16cc
.	4e	.	8a
.	.	.	8b
.	4e	8a]	8cc
.	.	8g	8b
.	4e	8a	8cc
.	.	8b	8dd
=97	=97	=97	=97
4r	8c	4.cc	4ee
.	16B	.	.
.	16c	.	.
4A	8A	.	2ff
.	8B	8b	.
4A	8c#	[2a	.
.	4d	.	.
4A	.	.	4ee
.	8c#	.	.
=98	=98	=98	=98
8F	4d	8a]	2dd
16E	.	16g	.
16F	.	16a	.
8D	4.d	8f	.
8E	.	8g	.
8F	.	4.a	2r
8E	16c	.	.
.	16B	.	.
8F	8A	.	.
8G	8B	16g	.
.	.	16f	.
=99	=99	=99	=99
8A	8c	4e	1r
8B	8d	.	.
8c	8e	4a	.
8B	8d	.	.
8A	8c	4a	.
8G	8B	.	.
8F	[4c	4a	.
8E	.	.	.
=100	=100	=100	=100
2D	4c]	8f	2r
.	.	16e	.
.	.	16f	.
.	4B-	8d	.
.	.	8e	.
4D	4A	8f	4r
.	.	8e	.
4D	4d	4f	8a
.	.	.	8b
=101	=101	=101	=101
8C	2e	4g	4.cc
16BB	.	.	.
16C	.	.	.
8AA	.	4.a	.
8BB	.	.	8dd
8C	2r	.	4.ee
8BB	.	16g	.
.	.	16f	.
8C	.	8e	.
8D	.	8f	16dd
.	.	.	16cc
=102	=102	=102	=102
8E	1r	8g	8b
8F	.	16f	8a
.	.	16e	.
8G	.	4d	4b
8F	.	.	.
8E	.	8g	4.cc
8D	.	8f	.
8C	.	[4e	.
8BB	.	.	8dd
=103	=103	=103	=103
2AA	4r	8e]	8cc
.	.	8d	8b
.	4A	8f	8a
.	.	[8e	8g
4r	4A	8e]	4f
.	.	4d	.
4AA	4A	.	4e
.	.	8c#	.
=104	=104	=104	=104
4.BB-	8F	[2d	4d
.	16E	.	.
.	16F	.	.
.	8D	.	4b-
8C	8E	.	.
[2D	8F	8d]	2a
.	8E	8c	.
.	8F	8d	.
.	8G	8e	.
=105	=105	=105	=105
4D]	8A	4f	4r
.	8B	.	.
8AA	8c	4e	4a
8BB	8B	.	.
8C#	8A	2r	4a
4D	8G	.	.
.	8F	.	4a
8C#	8E	.	.
=106	=106	=106	=106
[2D	4D	1r	8f
.	.	.	16e
.	.	.	16f
.	4B-	.	8d
.	.	.	8e
8D]	2A	.	8f
8C	.	.	8e
8D	.	.	8f
8E	.	.	8g
=107	=107	=107	=107
4.F	8A	1r	8a
.	8G	.	8b
.	8A	.	8cc
8G	8B	.	8b
2A	8c#	.	8a
.	4d	.	8g
.	.	.	8f
.	8c#	.	8e
=108	=108	=108	=108
2B-	4d	1r	8d
.	.	.	16e
.	.	.	16f
.	4d	.	16g
.	.	.	16a
.	.	.	16b-
.	.	.	16cc
2F#	4d	.	8dd
.	.	.	16cc
.	.	.	16b-
.	4d	.	16a
.	.	.	16b-
.	.	.	16cc
.	.	.	16a
=109	=109	=109	=109
1G	8B-	4r	2b-
.	16A	.	.
.	16B-	.	.
.	8G	4d	.
.	8A	.	.
.	8B-	[2g	[2b-
.	8A	.	.
.	8B-	.	.
.	8c	.	.
=110	=110	=110	=110
1D	1d	4g]	4b-]
.	.	8f#	8a
.	.	8g	8b-
.	.	4f#	4a
.	.	4e	4g
=111	=111	=111	=111
1D;	1d;	1f#;	1a;
==	==	==	==
*-	*-	*-	*-
!!!ENC: Peter van Kranenburg (peter@musical-style-recognition.net)
!!!END: 2020-01-09
